X: 4
T: The Turnpike
R: reel
M: 4/4
L: 1/8
K: Gmaj
|:GABG ABGE |D3E GABd |gfgd (3efg dB |cABG AGEF
|GABG ABGE |D3E GABd |gfgd (3efg dB |cAFA G4:|
D2 FD ADFD|G2BG dGBG|A2^cA eA^cA | df f2 af f2 |
gfgd (3efg dB |cBAB cdef |gfgd (3efg dB| =cAFA G2 (3DEF||


Tune 917	Setting 917

